X: 3
T:Captain With His Whiskers, Brackley 3
M:2/2
L:1/4
A:Brackley
P:A(AB)6A
K:G
P:A
G>A|Bc Bc|ce ec |BA AG |A2 B>c|
dd cB|ec BA |AG G>F|G2    ||
P:B
g>f|cA AA|A2 f>e|eB BB |B2 G>A|
dd cB|dc BA |AA A>F|G2   ||
